public/assets/img/tech-logo/tailwindcss.svg

<svg width="100" height="100" viewBox="0 0 100 100" fill="none" xmlns="http://www.w3.org/2000/svg">
<g id="tailwindcss">
<g id="tailwindcss_2">
<path id="Vector" d="M50.0002 20.0005C36.6665 20.0005 28.3334 26.6655 24.9996 39.9942C30.0002 33.3292 35.8337 30.8308 42.4999 32.4964C46.3039 33.4468 49.0224 36.2065 52.0323 39.2602C56.9341 44.2345 62.6075 49.9917 75.0009 49.9917C88.3334 49.9917 96.6677 43.3267 100 29.9967C95.0009 36.6617 89.1674 39.1614 82.4999 37.4958C78.6973 36.5454 75.9787 33.7856 72.9689 30.732C68.067 25.7576 62.3924 20.0005 50.0002 20.0005ZM24.9996 49.9917C11.6671 49.9917 3.33274 56.6567 0.000244141 69.9866C4.99962 63.3217 10.8331 60.822 17.5006 62.4888C21.3032 63.4405 24.0218 66.199 27.0316 69.2514C31.9335 74.2257 37.6081 79.9841 50.0002 79.9841C63.334 79.9841 71.6671 73.3191 75.0009 59.9892C70.0002 66.6542 64.1668 69.1538 57.5006 67.487C53.6966 66.5379 50.9781 63.7768 47.9682 60.7244C43.0664 55.7501 37.393 49.9917 24.9996 49.9917Z" fill="#06B6D4"/>
</g>
</g>
</svg>

<svg xmlns="http://www.w3.org/2000/svg" width="100" height="100" fill="none"><path fill="#06B6D4" d="M50 20q-20 .001-25 19.994 7.5-9.996 17.5-7.498c3.804.95 6.522 3.71 9.532 6.764 4.902 4.974 10.576 10.732 22.969 10.732q20 0 24.999-19.995-7.5 9.997-17.5 7.499c-3.803-.95-6.521-3.71-9.531-6.764C68.067 25.758 62.392 20.001 50 20.001M25 49.993q-20 0-25 19.995 7.5-9.998 17.5-7.498c3.803.952 6.522 3.71 9.532 6.762C31.933 74.226 37.608 79.984 50 79.984q20 0 25-19.995-7.5 9.998-17.5 7.498c-3.803-.95-6.522-3.71-9.532-6.763C43.066 55.75 37.393 49.992 25 49.992"/></svg>
